!!!COA: Josquin des Prez
!!!CDT: ~1450-1521/08/27
!!!COM: Senfl
!!!OTL: Deus in adiutorium
!!!AGN: Motet
!!!SCT: NJE 16.1
!!!SCA: New Josquin Edition 16.1
!!!voices: 4
!!!ONB: Superius part is lost
**kern	**kern	**kern	**kern
*staff4	*staff3	*staff2	*staff1
*I"Bassus	*I"Tenor	*I"Altus	*I"Superius
*I'B	*I'T	*I'A	*I'S
*clefF4	*clefGv2	*clefGv2	*clefG2
*k[b-]	*k[b-]	*k[b-]	*k[b-]
*M2/1	*M2/1	*M2/1	*M2/1
*met(C|)	*met(C|)	*met(C|)	*met(C|)
=1-	=1-	=1-	=1-
!	!	!	!LO:TX:Z=10:t=Superius part is missing
*	*	*	*xtacet
0r	1c	0r	0ryy
.	2c\	.	.
.	2c\	.	.
=2	=2	=2	=2
0r	2c\	0r	0ryy
.	2c\	.	.
.	[1d	.	.
=3	=3	=3	=3
1F	2d\]	0r	0ryy
.	2c\	.	.
2F\	1c	.	.
2F\	.	.	.
=4	=4	=4	=4
2F\	1c	0r	0ryy
2F\	.	.	.
[1G	[1B-	.	.
=5	=5	=5	=5
2G\]	2B-\]	1r	0ryy
2F\	2A/	.	.
[1F	1c	1f	.
=6	=6	=6	=6
1F]	1.c	2f\	0ryy
.	.	2f\	.
1F	.	2f\	.
.	4B-\	2f\	.
.	4A/	.	.
=7	=7	=7	=7
1.E	1G	1.g	0ryy
.	1r	.	.
2D\	.	2f\	.
=8	=8	=8	=8
1F	0r	1f	0ryy
1F	.	1f	.
=9	=9	=9	=9
0r	1r	1e	0ryy
.	[1B-	1d	.
=10	=10	=10	=10
0r	2B-\]	0f	0ryy
.	2F/	.	.
.	[1F	.	.
=11	=11	=11	=11
1r	0F_	1f	0ryy
[1BB-	.	[1d	.
=12	=12	=12	=12
2BB-/]	1F]	2d\]	0ryy
2FF/	.	2c\	.
1FF	[1A	1c	.
=13	=13	=13	=13
[0F	0A_	1r	0ryy
.	.	[1f	.
=14	=14	=14	=14
1F]	1A]	2f\]	0ryy
.	.	2c\	.
[1F	[1A	1c	.
=15	=15	=15	=15
2F\]	2A/]	2r	0ryy
2E\	2G/	2c\	.
1F	1A	2c\	.
.	.	2d\	.
=16	=16	=16	=16
1C	1G	2e\	0ryy
.	.	2c\	.
[1G	[1B-	[1d	.
=17	=17	=17	=17
1G]	1B-]	1d]	0ryy
1G	1B-	1d	.
=18	=18	=18	=18
1F	1A	1f	0ryy
1G	2.B-\	2e\	.
.	.	2d\	.
.	4c\	.	.
=19	=19	=19	=19
[0C	2A/	1.e	0ryy
.	2G/	.	.
.	2.c\	.	.
.	.	2c\	.
.	4B-\	.	.
=20	=20	=20	=20
0C]	2A/	[0c	0ryy
.	4G/	.	.
.	4F/	.	.
.	1G	.	.
=21	=21	=21	=21
1FF	0F	0c_	0ryy
1r	.	.	.
=22	=22	=22	=22
1.F	1r	0c]	0ryy
.	2r	.	.
2E\	2A/	.	.
=23	=23	=23	=23
2.D\	1A	0r	0ryy
4C/	.	.	.
1BB-	1d	.	.
=24	=24	=24	=24
2AA/	2.c\	0r	0ryy
1F	.	.	.
.	4B-\	.	.
.	2A/	.	.
2E\	2G/	.	.
=25	=25	=25	=25
2.D\	4F/	0r	0ryy
.	4E/	.	.
.	1A	.	.
4C/	.	.	.
1BB-	.	.	.
.	2G/	.	.
=26	=26	=26	=26
0AA	0A	1r	0ryy
.	.	1c	.
=27	=27	=27	=27
0r	0r	1c	0ryy
.	.	1d	.
=28	=28	=28	=28
0r	0r	2.c\	0ryy
.	.	4B-\	.
.	.	2A/	.
.	.	2G/	.
=29	=29	=29	=29
1r	0F	1c	0ryy
1BB-	.	1d	.
=30	=30	=30	=30
1.C	1.c	[0G	0ryy
2C/	2c\	.	.
=31	=31	=31	=31
1C	2.c\	1G]	0ryy
.	4A/	.	.
1D	2A/	2r	.
.	[2B-\	2d\	.
=32	=32	=32	=32
0GG	4B-\]	2.d\	0ryy
.	4G/	.	.
.	4G/	.	.
.	4A/	4c\	.
.	4B-\	2.B-\	.
.	4c\	.	.
.	[2d\	.	.
.	.	4A/	.
=33	=33	=33	=33
0r	4d\]	1G	0ryy
.	4c\	.	.
.	1c	.	.
.	.	1F	.
.	4B-\	.	.
.	4A/	.	.
=34	=34	=34	=34
1GG	1B-	2G/	0ryy
.	.	1d	.
[1D	2.A/	.	.
.	.	[2d\	.
.	4G/	.	.
=35	=35	=35	=35
2D\]	2F/	2d\]	0ryy
2E\	2G/	2c\	.
1D	1A	1d	.
=36	=36	=36	=36
0GG	[0G	0B-	0ryy
=37	=37	=37	=37
1BB-	0G]	2r	0ryy
.	.	2d\	.
1C	.	1c	.
=38	=38	=38	=38
1D	1r	1A	0ryy
2.GG/	1B-	2.d\	.
4G\	.	4e\	.
=39	=39	=39	=39
2F\	1c	2f\	0ryy
2E\	.	2.g\	.
1D	1d	.	.
.	.	4f\	.
.	.	[2f\	.
=40	=40	=40	=40
1C	1G	2f\]	0ryy
.	.	2e\	.
1r	[1d	[1f	.
=41	=41	=41	=41
0r	2d\]	0f]	0ryy
.	2d\	.	.
.	1d	.	.
=42	=42	=42	=42
0r	2r	0r	0ryy
.	2d\	.	.
.	2d\	.	.
.	2c\	.	.
=43	=43	=43	=43
0r	2.f\	0r	0ryy
.	4e\	.	.
.	4d\	.	.
.	4c\	.	.
.	[2d\	.	.
=44	=44	=44	=44
0r	4d\]	0r	0ryy
.	4c\	.	.
.	2A/	.	.
.	1B-	.	.
=45	=45	=45	=45
1r	0A	0r	0ryy
1F	.	.	.
=46	=46	=46	=46
1G	0r	1r	0ryy
1A	.	1c	.
=47	=47	=47	=47
1D	0r	1d	0ryy
[1A	.	[1e	.
=48	=48	=48	=48
2A\]	0r	2e\]	0ryy
2A\	.	2A/	.
1A	.	1e	.
=49	=49	=49	=49
2r	0r	1e	0ryy
2A\	.	.	.
2A\	.	1e	.
2G\	.	.	.
=50	=50	=50	=50
2.c\	0r	2r	0ryy
.	.	2e\	.
4B-\	.	.	.
4A\	.	2e\	.
4G\	.	.	.
[2A\	.	[2f\	.
=51	=51	=51	=51
4A\]	0r	4f\]	0ryy
4G\	.	4e\	.
2E\	.	1e	.
1F	.	.	.
.	.	2d\	.
=52	=52	=52	=52
1E	1G	1e	0ryy
1C	[1c	2r	.
.	.	2e\	.
=53	=53	=53	=53
1C	2c\]	1e	0ryy
.	2B-\	.	.
1C	2A/	1e	.
.	2G/	.	.
=54	=54	=54	=54
1F	2A/	2c\	0ryy
.	2D/	1d	.
1E	2.G/	.	.
.	.	2c\	.
.	4A/	.	.
=55	=55	=55	=55
0D	2B-\	3%2dV	0ryy
.	1A	.	.
.	.	3%2A	.
.	.	3%2BniZ	.
.	4G/	.	.
.	4F/	.	.
=56	=56	=56	=56
[0C	1G	[0c	0ryy
.	[1E	.	.
=57	=57	=57	=57
0C]	2E/]	0c_	0ryy
.	2F/	.	.
.	1G	.	.
=58	=58	=58	=58
[0FF	0F	0c]	0ryy
=59	=59	=59	=59
0FF]	1r	0A	0ryy
.	1F	.	.
=60	=60	=60	=60
0r	2A/	1r	0ryy
.	2F/	.	.
.	1c	2r	.
.	.	2c\	.
=61	=61	=61	=61
1r	1c	2e\	0ryy
.	.	2c\	.
1C	[1G	1g	.
=62	=62	=62	=62
2E\	1G]	1g	0ryy
2C/	.	.	.
1G	1r	2d\	.
.	.	2d\	.
=63	=63	=63	=63
1G	2r	2d\	0ryy
.	2G/	2d\	.
1D	2A/	1f	.
.	2F/	.	.
=64	=64	=64	=64
1r	1c	1e	0ryy
[1G	1B-	2r	.
.	.	2d\	.
=65	=65	=65	=65
1G]	2r	2d\	0ryy
.	2G/	2d\	.
1D	2A/	1f	.
.	2F/	.	.
=66	=66	=66	=66
0r	1c	1e	0ryy
.	1B-	1d	.
=67	=67	=67	=67
0r	1c	1e	0ryy
.	2c\	1e	.
.	2c\	.	.
=68	=68	=68	=68
2r	2.F/	[0f	0ryy
2D\	.	.	.
.	4G/	.	.
2F\	1A	.	.
2D\	.	.	.
=69	=69	=69	=69
1F	2r	1f]	0ryy
.	2c\	.	.
1C	2c\	1e	.
.	2c\	.	.
=70	=70	=70	=70
1D	1A	0r	0ryy
2BB-/	1B-	.	.
2BB-/	.	.	.
=71	=71	=71	=71
1F	[0A	2r	0ryy
.	.	1f	.
[1D	.	.	.
.	.	2d\	.
=72	=72	=72	=72
1D]	1A]	1f	0ryy
[1F	[1A	2e\	.
.	.	[2f\	.
=73	=73	=73	=73
2F\]	2A/]	2f\]	0ryy
2C/	2G/	2e\	.
1D	1F	1d	.
=74	=74	=74	=74
0AA	[0E	1.c	0ryy
.	.	2d\	.
=75	=75	=75	=75
1r	0E]	[0e	0ryy
1AA	.	.	.
=76	=76	=76	=76
1C	2r	0e_	0ryy
.	2E/	.	.
1C	1G	.	.
=77	=77	=77	=77
2r	1G	0e]	0ryy
1C	.	.	.
.	2r	.	.
2C/	[2G/	.	.
=78	=78	=78	=78
2C/	2G/]	0r	0ryy
2C/	2G/	.	.
1BB-	2G/	.	.
.	2G/	.	.
=79	=79	=79	=79
1AA	1F	0r	0ryy
[1C	1E	.	.
=80	=80	=80	=80
1C]	0G	0r	0ryy
2GG/	.	.	.
2GG/	.	.	.
=81	=81	=81	=81
1.BB-	2D/	1r	0ryy
.	2D/	.	.
.	[1F	1d	.
2FF/	.	.	.
=82	=82	=82	=82
[0FF	2F/]	1f	0ryy
.	2C/	.	.
.	1C	1f	.
=83	=83	=83	=83
0FF]	0r	2r	0ryy
.	.	1f	.
.	.	2f\	.
=84	=84	=84	=84
0r	0r	2f\	0ryy
.	.	2f\	.
.	.	1e	.
=85	=85	=85	=85
0r	0r	1d	0ryy
.	.	[1f	.
=86	=86	=86	=86
0r	0r	1f]	0ryy
.	.	2c\	.
.	.	2c\	.
=87	=87	=87	=87
0r	0r	1.e-	0ryy
.	.	2B-\	.
=88	=88	=88	=88
1BB-	1r	1B-	0ryy
[1D	1F	2r	.
.	.	2A/	.
=89	=89	=89	=89
1D]	1F	2B-\	0ryy
.	.	2A/	.
1D	1F	[1d	.
=90	=90	=90	=90
0E-	0G	2d\]	0ryy
.	.	4c\	.
.	.	4B-\	.
.	.	1c	.
=91	=91	=91	=91
[0D	0A	1d	0ryy
.	.	1f	.
=92	=92	=92	=92
0D]	1r	1f	0ryy
.	1d	1f	.
=93	=93	=93	=93
0G	1d	2g\	0ryy
.	.	1f	.
.	1B-	.	.
.	.	2e\	.
=94	=94	=94	=94
1F	1c	1f	0ryy
1F	1A	1c	.
=95	=95	=95	=95
1BB-	0d	1r	0ryy
1BB-	.	[1f	.
=96	=96	=96	=96
0F	1.c	1f]	0ryy
.	.	1f	.
.	2F/	.	.
=97	=97	=97	=97
0F	2.A/	[0f	0ryy
.	4B-\	.	.
.	1c	.	.
=98	=98	=98	=98
[0BB-	1B-	0f]	0ryy
.	2r	.	.
.	2F/	.	.
=99	=99	=99	=99
0BB-]	2F/	0d	0ryy
.	2F/	.	.
.	1B-	.	.
=100	=100	=100	=100
0r	2r	0B-	0ryy
.	2G/	.	.
.	2G/	.	.
.	2G/	.	.
=101	=101	=101	=101
0r	2.c\	2r	0ryy
.	.	2c\	.
.	8B-/L	.	.
.	8A/J	.	.
.	1A	2c\	.
.	.	2c\	.
=102	=102	=102	=102
0r	0r	2.f\	0ryy
.	.	4e\	.
.	.	2d\	.
.	.	2c\	.
=103	=103	=103	=103
0r	1r	2B-\	0ryy
.	.	1c	.
.	1G	.	.
.	.	2Bni\	.
=104	=104	=104	=104
1C	2G/	1c	0ryy
.	2G/	.	.
2C/	2.c\	1r	.
2C/	.	.	.
.	4B-\	.	.
=105	=105	=105	=105
2.F\	2A/	0r	0ryy
.	2G/	.	.
4E\	.	.	.
2D\	2F/	.	.
2C/	2E/	.	.
=106	=106	=106	=106
2BB-/	4D/	0r	0ryy
.	4C/	.	.
2AA/	1F	.	.
1GG	.	.	.
.	2E/	.	.
=107	=107	=107	=107
1FF	1F	2r	0ryy
.	.	2c\	.
2r	2D/	2.d\	.
2C/	2E/	.	.
.	.	4c\	.
=108	=108	=108	=108
1D	1F	2B-\	0ryy
.	.	2A/	.
1C	1G	1c	.
=109	=109	=109	=109
1r	1F	0A	0ryy
1D	1r	.	.
=110	=110	=110	=110
0F	1A	0r	0ryy
.	[1c	.	.
=111	=111	=111	=111
1E	1c]	0r	0ryy
1D	1B-	.	.
=112	=112	=112	=112
2r	1A	0r	0ryy
2C/	.	.	.
1E-	2r	.	.
.	2G/	.	.
=113	=113	=113	=113
1D	1B-	0r	0ryy
1C	1A	.	.
=114	=114	=114	=114
1.E-i	1G	0r	0ryy
.	[1B-	.	.
2D\	.	.	.
=115	=115	=115	=115
0D	2B-\]	1d	0ryy
.	2A/	.	.
.	[1A	[1f	.
=116	=116	=116	=116
0r	1A]	1f]	0ryy
.	1r	1e	.
=117	=117	=117	=117
0r	0r	1d	0ryy
.	.	2r	.
.	.	2c\	.
=118	=118	=118	=118
0r	0r	1e-	0ryy
.	.	1d	.
=119	=119	=119	=119
0r	0r	1c	0ryy
.	.	[1e-	.
=120	=120	=120	=120
0r	0r	2e-\]	0ryy
.	.	2d\	.
.	.	[1d	.
=121	=121	=121	=121
1D	1r	1d]	0ryy
2D\	[1A	1r	.
[2F\	.	.	.
=122	=122	=122	=122
2F\]	2A/]	0r	0ryy
2C/	1c	.	.
[1E-	.	.	.
.	2G/	.	.
=123	=123	=123	=123
2E-\]	1.B-	1r	0ryy
2D\	.	.	.
[1D	.	1d	.
.	2A/	.	.
=124	=124	=124	=124
1D]	0A	2d\	0ryy
.	.	1f	.
1r	.	.	.
.	.	2c\	.
=125	=125	=125	=125
0r	0r	1.e-i	0ryy
.	.	2d\	.
=126	=126	=126	=126
1r	0r	0d	0ryy
2r	.	.	.
[2D\	.	.	.
=127	=127	=127	=127
2D\]	1A	0r	0ryy
1F	.	.	.
.	1c	.	.
[2E\	.	.	.
=128	=128	=128	=128
2E\]	1B-	0r	0ryy
1G	.	.	.
.	1d	.	.
[2D\	.	.	.
=129	=129	=129	=129
2D\]	1A	0r	0ryy
2D\	.	.	.
2F\	2r	.	.
2F\	2A/	.	.
=130	=130	=130	=130
2E\	2c\	0r	0ryy
2E\	2c\	.	.
1G	2B-\	.	.
.	2B-\	.	.
=131	=131	=131	=131
2D\	1d	0r	0ryy
1F	.	.	.
.	2A/	.	.
4E\	[2c\	.	.
4D\	.	.	.
=132	=132	=132	=132
1C	2c\]	2r	0ryy
.	4B-\	1G	.
.	4A/	.	.
1r	1G	.	.
.	.	[2B-\	.
=133	=133	=133	=133
0r	0r	2B-\]	0ryy
.	.	1A	.
.	.	[2c\	.
=134	=134	=134	=134
1C	0r	2c\]	0ryy
.	.	1G	.
[1G	.	.	.
.	.	2G/	.
=135	=135	=135	=135
2G\]	0r	2B-\	0ryy
2G\	.	2B-\	.
2F\	.	2A/	.
2D\	.	2A/	.
=136	=136	=136	=136
1A	1r	1c	0ryy
2E\	2.G/	2G/	.
[2G\	.	[2B-\	.
.	4A/	.	.
=137	=137	=137	=137
2G\]	4B-\	2B-\]	0ryy
.	4c\	.	.
4F\	1d	4A/	.
4E\	.	4G/	.
2D\	.	1F	.
[2F\	4c\	.	.
.	4B-\	.	.
=138	=138	=138	=138
2F\]	2A/	1r	0ryy
4E\	1c	.	.
4D\	.	.	.
1C	.	[1c	.
.	4B-\	.	.
.	4A/	.	.
=139	=139	=139	=139
1C	1G	1c]	0ryy
1C	2G/	1c	.
.	2G/	.	.
=140	=140	=140	=140
1BB-	1B-	1d	0ryy
1BB-	1B-	1d	.
=141	=141	=141	=141
[0C	0G	1.c	0ryy
.	.	4B-\	.
.	.	4A/	.
=142	=142	=142	=142
0C]	0r	1G	0ryy
.	.	[1g	.
=143	=143	=143	=143
0r	1.c	2g\]	0ryy
.	.	2f\	.
.	.	2.e\	.
.	2B-\	.	.
.	.	4d\	.
=144	=144	=144	=144
1.F	2.A/	0c	0ryy
.	4G/	.	.
.	1F	.	.
2E\	.	.	.
=145	=145	=145	=145
2.D\	1F	1r	0ryy
4C/	.	.	.
[1BB-	[1B-	[1d	.
=146	=146	=146	=146
1BB-]	2B-\]	2d\]	0ryy
.	2G/	2B-\	.
[1E-	1G	1B-	.
=147	=147	=147	=147
2E-\]	0c	0e-	0ryy
2C/	.	.	.
1C	.	.	.
=148	=148	=148	=148
0D	0F	3%2d	0ryy
.	.	3%2A	.
.	.	3%2Bni	.
=149	=149	=149	=149
[0C	0r	1c	0ryy
.	.	1G	.
=150	=150	=150	=150
0C]	1r	1.g	0ryy
.	[1c	.	.
.	.	2f\	.
=151	=151	=151	=151
1r	2c\]	2.e\	0ryy
.	2B-\	.	.
.	.	4d\	.
[1F	2.A/	[1c	.
.	4G/	.	.
=152	=152	=152	=152
2F\]	0F	1c]	0ryy
2E\	.	.	.
2.D\	.	1r	.
4C/	.	.	.
=153	=153	=153	=153
0BB-	1.B-	1.d	0ryy
.	2G/	2B-\	.
=154	=154	=154	=154
1.E-	1G	1B-	0ryy
.	[1c	[1e-	.
2C/	.	.	.
=155	=155	=155	=155
1C	1c]	1e-]	0ryy
1D	1F	2d\	.
.	.	2B-\	.
=156	=156	=156	=156
0C	0G	0c	0ryy
=157	=157	=157	=157
0FFl	0Fl	0cl	0ryy
==	==	==	==
*-	*-	*-	*-
!!!RDF**kern: %=rational rhythm
!!!rscale-alt: 1/2
!!!RDF**kern: V=start of tuplet marker
!!!RDF**kern: Z=end of tuplet marker
!!!RDF**kern: l=long note in original notation
!!!RDF**kern: i=editorial accidental
!!!SMS1: Ed. Kroyer, Ludwig Senfls Werke, 1. Teil, DTB, 3 (Leipzig 1903) no. 11
!!!SMS2: (after Grimm & Wirsung 1520)
!!!SMS1: Ed. Josephson, Nicholas Champion, Collected Works, CMM, 60
!!!SMS2: (Amer Inst Musicology 1973) pp 112-116 (after VienNB 15941)
!!!SMS1: Josephson, Formal Symmetry in the High Renaissance, in TVNM 41
!!!SMS2: (1991) pp 124-133 (after Grimm & Wirsung 1520)
!!!ENC: Victoria Chang
!!!END: 2011/03/21/
!!!EED: Jesse Rodin
!!!EEV: 2012/04/24/
!!attribution-level@Jos: 5 (doubtful)
!!!ONB: Translated from MusicXML and edited on 2011/04/04/ by Craig Sapp
!!muse2ps:  C^@{COA}?\n@{SCT}^v80,90,90,150I200Q16
